X:17
T:Red Haired Boy
C: Traditional
R:Reel
M:4/4
L:1/8
K:A
AF|:"A"F2 A2 ABcd|efec "D"d2 fd|"A"edcB ABcA|"G"BAEF =G3 F|
"A"E2 A2 ABcd|dfdc "D"d2 cd|"A"e2 a^g afed|[1 "(E)"c2 A2 "(A)"A3 F:|2"(E)"c2A2 "(A)"A2 ef||
"G"=gfef gfef|=gfec "D"d2 cd|"A"edcB ABcA|"G"BAEF =G3 F|
"A"E2 A2 ABcd|efec "D"d2 cd|"A"e2 ag afed|1"(E)"c2 A2 "(A)"A2 ef:|2"(E)"c2A2 "(A)"A2|]
